src/images/heart__img_01.svg

<svg width="217" height="152" viewBox="0 0 217 152" fill="none" xmlns="http://www.w3.org/2000/svg">
<path d="M95.4653 69.0043C97.326 66.8266 99.1247 64.5866 100.923 62.4088C102.784 60.1688 104.707 57.991 106.443 55.6888C106.878 55.1288 107.312 54.5066 107.746 53.9466C108.056 53.511 108.428 53.0755 108.738 52.6399C109.172 51.9555 109.669 51.3333 110.103 50.6488C110.413 50.2133 110.723 49.8399 110.971 49.4044C111.777 48.0977 112.584 46.791 113.328 45.4222C115.313 41.751 117.049 37.8933 117.98 33.7866C118.166 32.8533 118.352 31.9822 118.476 31.0488C118.662 29.7422 118.848 28.4355 118.972 27.1288C119.096 24.8888 118.786 22.5866 118.414 20.3466C118.29 19.4755 118.042 18.5422 117.856 17.6711C117.546 16.4266 117.112 15.2444 116.615 14.1244C115.747 12.1333 114.569 10.3911 113.266 8.7111C111.964 7.0311 110.413 5.66221 108.676 4.41777C106.94 3.23555 105.017 2.36444 103.094 1.61777C101.047 0.808882 99.0006 0.435557 96.8298 0.186668C95.9615 0.062224 95.0931 0 94.2868 0C93.2324 0 92.178 0.062224 91.1236 0.186668C88.9528 0.497779 86.844 0.87111 84.7972 1.55555C82.8745 2.24 80.9518 3.11111 79.2151 4.23111C78.2847 4.85333 77.4164 5.53776 76.4861 6.28443C75.7418 6.90665 74.9975 7.5911 74.2532 8.27555C72.8887 9.58221 71.5862 11.0133 70.4077 12.5066C68.2989 15.1822 66.4382 18.1066 64.8876 21.1555C64.2054 22.4622 63.6472 23.8311 63.089 25.2C62.9649 24.8889 62.7788 24.5777 62.6548 24.2666C62.1586 23.3333 61.4763 22.4622 60.7941 21.5911C60.1739 20.8444 59.5536 20.0977 58.9334 19.3511C58.1271 18.4177 57.3208 17.5466 56.5145 16.6133C55.8942 15.9289 55.274 15.2444 54.5917 14.56C53.1652 13.1289 51.5526 11.8222 49.8779 10.7022C48.3273 9.70665 46.7147 8.77332 45.0401 8.02665C43.0553 7.15554 41.0706 6.34666 38.9618 5.9111C37.7833 5.66221 36.6049 5.53777 35.3644 5.41332C34.4341 5.28888 33.4417 5.22666 32.5113 5.22666C30.3405 5.22666 28.1077 5.53777 25.9368 5.9111C24.0761 6.22221 22.1534 6.71999 20.4167 7.46666C18.37 8.33777 16.4472 9.2711 14.5865 10.3911C12.7258 11.5111 10.9891 12.8178 9.31451 14.2489C7.7019 15.68 6.33738 17.2978 5.03488 18.9777C3.73239 20.72 2.80204 22.7111 1.99573 24.7022C1.31347 26.3822 0.755257 28.1244 0.445139 29.9288C0.0729976 32.1688 -0.113075 34.4088 0.0729962 36.6488C0.259067 38.8266 0.755257 41.0044 1.49954 43.0577C2.92608 46.8533 4.91084 50.3999 7.39178 53.6355C8.69428 55.3777 10.1208 57.0577 11.6094 58.6755C12.2296 59.2977 12.8499 59.9199 13.4701 60.4799C14.0283 61.0399 14.6485 61.5999 15.2068 62.1599C15.6409 62.5332 16.0751 62.9066 16.5092 63.2799C17.2535 63.9021 17.9978 64.5866 18.8041 65.2088C19.4244 65.6443 19.9826 66.0799 20.6028 66.5155C21.099 66.8888 21.5332 67.2621 22.0293 67.5732C22.6496 68.0088 23.2698 68.3821 23.8901 68.8177C25.9989 70.2488 28.2317 71.5554 30.4025 72.8621C35.1163 75.6621 39.8301 78.5866 44.5439 81.4488C49.0096 84.1243 53.4753 86.7376 57.817 89.6621C60.0498 91.1554 62.2827 92.7732 64.5155 94.3287C65.6319 95.1376 66.8104 95.9465 67.9268 96.7554C68.8572 97.4398 69.7875 98.1243 70.7179 98.7465C71.5242 99.2443 72.2685 99.7421 73.0748 100.24C73.819 100.675 74.5633 101.049 75.2456 101.484C76.7962 102.355 78.7809 102.107 80.0214 100.862C80.5176 100.364 80.8277 99.8043 81.0138 99.1199C81.0758 98.8087 81.0758 98.4976 81.1378 98.1865C81.572 97.6265 81.7581 96.9421 81.8201 96.1332C81.8821 95.1998 81.8821 94.3287 81.9441 93.3954C82.1302 92.2132 82.3783 91.031 82.7504 89.8488C83.0606 88.7288 83.4947 87.6087 83.9909 86.4887C84.9833 84.3732 86.0997 82.2577 87.2782 80.2043C87.8984 79.1466 88.5807 78.0888 89.2009 77.0932C89.7591 76.1599 90.4414 75.351 91.0616 74.4799C92.5502 72.551 93.9767 70.7466 95.4653 69.0043ZM88.8908 63.9644C88.0845 65.0221 87.2161 66.0799 86.4098 67.1999C85.6656 68.2577 84.8593 69.2532 84.115 70.311C83.3707 71.4932 82.5644 72.6754 81.8821 73.8577C81.1999 75.0399 80.5796 76.2221 79.8974 77.4043C79.2771 78.5243 78.7189 79.7065 78.2227 80.8888C77.6025 82.3199 76.9202 83.751 76.424 85.2443C75.9899 86.551 75.5557 87.8577 75.3076 89.2265C75.2456 89.4132 75.2456 89.5376 75.1836 89.7243C74.9355 89.4754 74.6874 89.2887 74.3773 89.0399C73.633 88.4176 72.8267 87.8576 72.0824 87.2354C71.5862 86.8621 71.028 86.4265 70.5318 85.991C69.5394 85.2443 68.547 84.4977 67.4926 83.8132C66.3762 83.0043 65.3218 82.1954 64.2054 81.4488C63.089 80.7021 62.0346 79.9554 60.9181 79.271C58.4372 77.7777 55.9563 76.2843 53.4133 74.791C52.2969 74.1066 51.1184 73.4843 49.94 72.8621C48.7615 72.1777 47.5831 71.4932 46.3426 70.871C44.2338 69.6888 42.125 68.4443 40.0162 67.1999C37.7833 65.8932 35.4885 64.6488 33.2556 63.3421C32.0772 62.6577 30.8987 62.0355 29.7823 61.2888C28.6659 60.6043 27.5494 59.9199 26.433 59.1732C25.5647 58.551 24.6343 57.9288 23.766 57.3066C22.7736 56.4977 21.7192 55.6888 20.7889 54.7555C20.1066 54.1333 19.4244 53.511 18.7421 52.8888C17.9358 52.1421 17.1915 51.3955 16.5092 50.5866C15.889 49.9021 15.2688 49.1555 14.6485 48.4088C12.9119 46.1066 11.4233 43.6799 10.3069 41.0666C9.74868 39.6355 9.31451 38.1422 9.06642 36.6488C8.94237 35.2177 8.94237 33.7866 9.12844 32.3555C9.37654 30.6755 9.87273 29.0577 10.493 27.5022C11.1132 26.0711 11.9195 24.7022 12.8499 23.3955C14.0903 21.9022 15.4548 20.5333 16.9434 19.3511C17.9978 18.5422 19.1142 17.7955 20.2927 17.1111C21.4711 16.4266 22.7116 15.7422 23.9521 15.1822C26.309 14.2489 28.8519 13.6889 31.3329 13.3155C33.6278 13.0666 35.9226 13.0666 38.2795 13.3155C40.3883 13.6266 42.4971 14.2489 44.5439 15.0578C46.7147 15.9911 48.7615 17.1111 50.6222 18.5422C51.9247 19.6 53.2272 20.72 54.4677 21.84C55.0259 22.3377 55.5221 22.7733 56.0183 23.2711C56.9486 24.1422 57.879 25.0133 58.6853 26.0089C59.4916 27.1289 60.1118 28.3111 60.67 29.6177C60.7941 29.9911 60.9802 30.3644 61.1042 30.7377C60.8561 31.5466 61.1042 32.5422 61.4764 33.2266C61.9105 33.9733 62.6548 34.5333 63.5231 34.7822C64.3914 35.0311 65.3218 34.9066 66.1281 34.4088C66.3762 34.2222 66.5623 34.0355 66.8104 33.8488C67.2445 33.4133 67.4926 32.9155 67.6787 32.3555C68.361 30.4888 69.0432 28.6222 69.7875 26.8177C71.152 23.7066 72.9507 20.72 74.9975 17.9822C76.8582 15.6178 79.029 13.3778 81.3859 11.4489C82.6884 10.5155 83.9909 9.64443 85.4795 9.02221C87.2161 8.33777 89.0769 7.83999 90.9376 7.5911C92.6742 7.40443 94.4109 7.34221 96.1475 7.52887C97.6981 7.77776 99.1867 8.21332 100.675 8.77331C102.04 9.39554 103.342 10.08 104.521 10.9511C105.389 11.6355 106.133 12.4444 106.816 13.3155C107.684 14.4978 108.366 15.7422 108.986 17.1111C109.545 18.6044 109.917 20.2222 110.165 21.7777C110.351 23.6444 110.413 25.5111 110.227 27.3777C109.793 30.3644 108.924 33.2266 107.808 36.0266C106.816 38.2666 105.637 40.3822 104.397 42.4977C104.025 43.1822 103.652 43.8044 103.218 44.4888C102.908 44.9866 102.598 45.4222 102.288 45.9199C101.854 46.5422 101.482 47.1644 101.047 47.7866C100.737 48.2844 100.303 48.7821 99.993 49.2799C99.1867 50.3999 98.3184 51.5199 97.5121 52.6399C97.388 52.8266 97.2019 53.0133 97.0779 53.1999C94.2248 56.9333 91.5578 60.4799 88.8908 63.9644Z" fill="white"/>
<path d="M144.799 127.092C143.392 125.448 142.032 123.757 140.671 122.113C139.264 120.422 137.81 118.778 136.497 117.04C136.168 116.617 135.84 116.147 135.511 115.724C135.277 115.396 134.995 115.067 134.761 114.738C134.433 114.221 134.057 113.752 133.729 113.235C133.494 112.906 133.26 112.624 133.072 112.295C132.462 111.309 131.853 110.323 131.29 109.289C129.789 106.518 128.475 103.606 127.772 100.506C127.631 99.801 127.49 99.1434 127.396 98.4388C127.256 97.4524 127.115 96.466 127.021 95.4796C126.927 93.7886 127.162 92.0507 127.443 90.3597C127.537 89.7021 127.725 88.9975 127.865 88.3399C128.1 87.4005 128.428 86.508 128.804 85.6626C129.46 84.1595 130.352 82.8443 131.337 81.576C132.322 80.3078 133.494 79.2744 134.808 78.335C136.121 77.4425 137.575 76.7849 139.03 76.2213C140.578 75.6106 142.126 75.3288 143.767 75.1409C144.424 75.047 145.081 75 145.691 75C146.488 75 147.286 75.047 148.083 75.1409C149.725 75.3758 151.32 75.6576 152.868 76.1743C154.322 76.691 155.776 77.3486 157.089 78.1941C157.793 78.6638 158.45 79.1805 159.153 79.7441C159.716 80.2138 160.279 80.7305 160.842 81.2472C161.874 82.2336 162.859 83.314 163.75 84.4413C165.345 86.4611 166.753 88.6687 167.925 90.9703C168.441 91.9568 168.863 92.9901 169.286 94.0235C169.379 93.7886 169.52 93.5538 169.614 93.3189C169.989 92.6144 170.505 91.9567 171.021 91.2991C171.49 90.7355 171.959 90.1718 172.429 89.6082C173.038 88.9036 173.648 88.246 174.258 87.5414C174.727 87.0247 175.196 86.508 175.712 85.9914C176.791 84.911 178.011 83.9246 179.277 83.0791C180.45 82.3276 181.67 81.623 182.936 81.0593C184.437 80.4017 185.938 79.7911 187.533 79.4623C188.424 79.2744 189.316 79.1805 190.254 79.0865C190.957 78.9926 191.708 78.9456 192.412 78.9456C194.053 78.9456 195.742 79.1805 197.384 79.4623C198.791 79.6972 200.245 80.0729 201.559 80.6366C203.107 81.2942 204.561 81.9988 205.968 82.8443C207.375 83.6897 208.689 84.6761 209.955 85.7565C211.175 86.8368 212.207 88.0581 213.192 89.3263C214.177 90.6415 214.881 92.1446 215.491 93.6477C216.007 94.916 216.429 96.2312 216.663 97.5933C216.945 99.2843 217.086 100.975 216.945 102.666C216.804 104.31 216.429 105.954 215.866 107.504C214.787 110.37 213.286 113.047 211.41 115.49C210.424 116.805 209.346 118.073 208.22 119.294C207.751 119.764 207.282 120.234 206.813 120.656C206.39 121.079 205.921 121.502 205.499 121.925C205.171 122.206 204.842 122.488 204.514 122.77C203.951 123.24 203.388 123.757 202.778 124.226C202.309 124.555 201.887 124.884 201.418 125.213C201.043 125.494 200.714 125.776 200.339 126.011C199.87 126.34 199.401 126.622 198.932 126.951C197.337 128.031 195.648 129.017 194.006 130.004C190.441 132.117 186.876 134.325 183.311 136.486C179.934 138.506 176.556 140.478 173.273 142.686C171.584 143.813 169.895 145.035 168.207 146.209C167.362 146.82 166.471 147.43 165.627 148.041C164.923 148.558 164.22 149.074 163.516 149.544C162.906 149.92 162.343 150.295 161.733 150.671C161.17 151 160.608 151.282 160.092 151.611C158.919 152.268 157.418 152.08 156.48 151.141C156.104 150.765 155.87 150.342 155.729 149.826C155.682 149.591 155.682 149.356 155.635 149.121C155.307 148.698 155.166 148.182 155.119 147.571C155.072 146.867 155.072 146.209 155.025 145.504C154.885 144.612 154.697 143.719 154.416 142.827C154.181 141.982 153.853 141.136 153.477 140.291C152.727 138.693 151.883 137.096 150.991 135.546C150.522 134.748 150.006 133.949 149.537 133.198C149.115 132.493 148.599 131.883 148.13 131.225C147.004 129.769 145.925 128.407 144.799 127.092ZM149.772 123.287C150.381 124.085 151.038 124.884 151.648 125.729C152.211 126.528 152.821 127.279 153.384 128.078C153.947 128.97 154.556 129.863 155.072 130.755C155.588 131.648 156.057 132.54 156.573 133.433C157.043 134.278 157.465 135.171 157.84 136.063C158.309 137.143 158.825 138.224 159.2 139.351C159.529 140.338 159.857 141.324 160.045 142.357C160.092 142.498 160.092 142.592 160.138 142.733C160.326 142.545 160.514 142.404 160.748 142.216C161.311 141.747 161.921 141.324 162.484 140.854C162.859 140.572 163.281 140.244 163.657 139.915C164.407 139.351 165.158 138.787 165.955 138.271C166.799 137.66 167.597 137.049 168.441 136.486C169.286 135.922 170.083 135.359 170.927 134.842C172.804 133.715 174.68 132.587 176.603 131.46C177.448 130.943 178.339 130.473 179.23 130.004C180.122 129.487 181.013 128.97 181.951 128.501C183.546 127.608 185.141 126.669 186.736 125.729C188.424 124.743 190.16 123.804 191.849 122.817C192.74 122.3 193.631 121.831 194.476 121.267C195.32 120.75 196.164 120.234 197.009 119.67C197.665 119.2 198.369 118.731 199.026 118.261C199.776 117.65 200.574 117.04 201.277 116.335C201.793 115.865 202.309 115.396 202.825 114.926C203.435 114.362 203.998 113.799 204.514 113.188C204.983 112.671 205.452 112.108 205.921 111.544C207.235 109.806 208.361 107.974 209.205 106.001C209.627 104.921 209.955 103.794 210.143 102.666C210.237 101.586 210.237 100.506 210.096 99.4252C209.909 98.157 209.533 96.9357 209.064 95.7614C208.595 94.6811 207.985 93.6477 207.282 92.6613C206.343 91.534 205.311 90.5006 204.186 89.6082C203.388 88.9975 202.544 88.4339 201.653 87.9172C200.761 87.4005 199.823 86.8838 198.885 86.4611C197.102 85.7565 195.179 85.3338 193.303 85.0519C191.567 84.864 189.832 84.864 188.049 85.0519C186.454 85.2868 184.859 85.7565 183.311 86.3671C181.67 87.0717 180.122 87.9172 178.714 88.9975C177.729 89.7961 176.744 90.6415 175.806 91.487C175.384 91.8628 175.009 92.1916 174.633 92.5674C173.93 93.225 173.226 93.8826 172.616 94.6341C172.006 95.4796 171.537 96.3721 171.115 97.3585C171.021 97.6403 170.881 97.9221 170.787 98.204C170.974 98.8146 170.787 99.5661 170.505 100.083C170.177 100.646 169.614 101.069 168.957 101.257C168.301 101.445 167.597 101.351 166.987 100.975C166.799 100.834 166.659 100.693 166.471 100.553C166.143 100.224 165.955 99.848 165.814 99.4252C165.298 98.0161 164.782 96.6069 164.22 95.2448C163.188 92.8962 161.827 90.6415 160.279 88.5748C158.872 86.7899 157.23 85.0989 155.448 83.6428C154.463 82.9382 153.477 82.2806 152.352 81.8109C151.038 81.2942 149.631 80.9184 148.224 80.7305C146.91 80.5896 145.597 80.5426 144.283 80.6836C143.111 80.8714 141.985 81.2002 140.859 81.623C139.827 82.0927 138.842 82.6094 137.951 83.267C137.294 83.7837 136.731 84.3943 136.215 85.0519C135.558 85.9444 135.042 86.8838 134.573 87.9172C134.151 89.0445 133.87 90.2658 133.682 91.4401C133.541 92.8492 133.494 94.2584 133.635 95.6675C133.963 97.9221 134.62 100.083 135.465 102.197C136.215 103.888 137.106 105.485 138.045 107.082C138.326 107.598 138.607 108.068 138.936 108.585C139.17 108.96 139.405 109.289 139.639 109.665C139.968 110.135 140.249 110.604 140.578 111.074C140.812 111.45 141.14 111.826 141.375 112.202C141.985 113.047 142.642 113.892 143.251 114.738C143.345 114.879 143.486 115.02 143.58 115.161C145.738 117.979 147.755 120.656 149.772 123.287Z" fill="white"/>
</svg>

<svg width="119" height="102" fill="none" xmlns="http://www.w3.org/2000/svg"><path d="M95.465 69.004c1.861-2.177 3.66-4.417 5.458-6.595 1.861-2.24 3.784-4.418 5.52-6.72.435-.56.869-1.182 1.303-1.742.31-.436.682-.872.992-1.307.434-.684.931-1.307 1.365-1.991.31-.436.62-.81.868-1.245.806-1.306 1.613-2.613 2.357-3.982 1.985-3.671 3.721-7.529 4.652-11.635.186-.934.372-1.805.496-2.738.186-1.307.372-2.613.496-3.92.124-2.24-.186-4.542-.558-6.782-.124-.872-.372-1.805-.558-2.676a21.664 21.664 0 00-1.241-3.547c-.868-1.99-2.046-3.733-3.349-5.413-1.302-1.68-2.853-3.049-4.59-4.293-1.736-1.182-3.659-2.054-5.582-2.8C101.047.808 99.001.436 96.83.187A18.14 18.14 0 0094.287 0c-1.055 0-2.109.062-3.163.187-2.171.31-4.28.684-6.327 1.369-1.922.684-3.845 1.555-5.582 2.675-.93.622-1.799 1.307-2.729 2.053a64.237 64.237 0 00-2.233 1.992 41.453 41.453 0 00-3.845 4.23 52.395 52.395 0 00-5.52 8.65c-.683 1.306-1.24 2.675-1.799 4.044-.124-.311-.31-.622-.434-.933-.496-.934-1.179-1.805-1.86-2.676l-1.862-2.24c-.806-.933-1.612-1.804-2.419-2.738-.62-.684-1.24-1.369-1.922-2.053a31.153 31.153 0 00-4.714-3.858c-1.55-.995-3.163-1.929-4.838-2.675-1.985-.871-3.97-1.68-6.078-2.116-1.179-.249-2.357-.373-3.598-.498a21.967 21.967 0 00-2.853-.186c-2.17 0-4.403.31-6.574.684-1.86.311-3.784.809-5.52 1.556-2.047.87-3.97 1.804-5.83 2.924-1.861 1.12-3.598 2.427-5.272 3.858-1.613 1.431-2.978 3.049-4.28 4.729-1.303 1.742-2.233 3.733-3.04 5.724-.682 1.68-1.24 3.422-1.55 5.227-.372 2.24-.558 4.48-.372 6.72A25.232 25.232 0 001.5 43.058a41.165 41.165 0 005.892 10.578 64.729 64.729 0 004.217 5.04c.62.622 1.24 1.244 1.861 1.804.558.56 1.178 1.12 1.737 1.68l1.302 1.12c.744.622 1.489 1.307 2.295 1.929.62.435 1.179.87 1.799 1.306.496.374.93.747 1.426 1.058.62.436 1.24.81 1.861 1.245 2.109 1.43 4.342 2.737 6.512 4.044 4.714 2.8 9.428 5.725 14.142 8.587 4.466 2.675 8.931 5.289 13.273 8.213 2.233 1.493 4.466 3.111 6.699 4.667 1.116.809 2.294 1.618 3.41 2.426.931.685 1.861 1.37 2.792 1.992.806.497 1.55.995 2.357 1.493.744.435 1.488.809 2.17 1.244 1.551.871 3.536.623 4.776-.622a3.772 3.772 0 00.993-1.742c.062-.311.062-.622.124-.934.434-.56.62-1.244.682-2.053.062-.933.062-1.804.124-2.738.186-1.182.434-2.364.806-3.546.31-1.12.745-2.24 1.24-3.36a86.602 86.602 0 013.288-6.285c.62-1.057 1.303-2.115 1.923-3.11.558-.934 1.24-1.743 1.86-2.614 1.49-1.929 2.916-3.733 4.404-5.476zm-6.574-5.04c-.806 1.058-1.675 2.116-2.481 3.236-.744 1.058-1.55 2.053-2.295 3.111-.744 1.182-1.55 2.364-2.233 3.547-.682 1.182-1.302 2.364-1.985 3.546a35.91 35.91 0 00-1.674 3.485c-.62 1.43-1.303 2.862-1.799 4.355-.434 1.307-.868 2.614-1.116 3.983-.062.186-.062.31-.124.497-.248-.249-.497-.435-.807-.684-.744-.622-1.55-1.182-2.295-1.805a27.165 27.165 0 01-1.55-1.244c-.993-.747-1.985-1.493-3.04-2.178-1.116-.809-2.17-1.618-3.287-2.364-1.116-.747-2.17-1.494-3.287-2.178-2.48-1.493-4.962-2.987-7.505-4.48-1.116-.684-2.295-1.307-3.473-1.929-1.178-.684-2.357-1.369-3.597-1.991-2.11-1.182-4.218-2.427-6.327-3.671-2.233-1.307-4.527-2.551-6.76-3.858-1.179-.684-2.357-1.306-3.474-2.053-1.116-.685-2.233-1.37-3.349-2.116-.868-.622-1.799-1.244-2.667-1.866-.992-.81-2.047-1.618-2.977-2.552l-2.047-1.866a25.935 25.935 0 01-2.233-2.302c-.62-.685-1.24-1.431-1.86-2.178-1.737-2.302-3.226-4.73-4.342-7.342a22.31 22.31 0 01-1.24-4.418c-.125-1.431-.125-2.862.061-4.294.249-1.68.745-3.297 1.365-4.853.62-1.43 1.426-2.8 2.357-4.107 1.24-1.493 2.605-2.862 4.093-4.044a31.408 31.408 0 013.35-2.24c1.178-.684 2.419-1.369 3.66-1.929 2.356-.933 4.899-1.493 7.38-1.867a32.404 32.404 0 016.947 0c2.108.312 4.217.934 6.264 1.743 2.17.933 4.218 2.053 6.078 3.484a97.696 97.696 0 013.846 3.298c.558.498 1.054.933 1.55 1.431.93.871 1.861 1.742 2.667 2.738.807 1.12 1.427 2.302 1.985 3.609.124.373.31.746.434 1.12-.248.809 0 1.804.372 2.489.434.746 1.179 1.306 2.047 1.555a3.226 3.226 0 002.605-.373c.248-.187.434-.373.682-.56.434-.436.683-.933.869-1.493.682-1.867 1.364-3.734 2.108-5.538 1.365-3.111 3.164-6.098 5.21-8.836a42.34 42.34 0 016.389-6.533c1.302-.934 2.605-1.805 4.094-2.427a23.524 23.524 0 015.458-1.43c1.736-.188 3.473-.25 5.21-.063 1.55.249 3.039.684 4.527 1.244 1.365.623 2.667 1.307 3.846 2.178.868.684 1.612 1.493 2.295 2.364.868 1.183 1.55 2.427 2.17 3.796.559 1.493.931 3.111 1.179 4.667.186 1.866.248 3.733.062 5.6-.434 2.986-1.303 5.849-2.419 8.649-.992 2.24-2.171 4.355-3.411 6.47a33.43 33.43 0 01-1.179 1.992c-.31.498-.62.933-.93 1.43-.434.623-.806 1.245-1.241 1.868-.31.497-.744.995-1.054 1.493-.806 1.12-1.675 2.24-2.48 3.36-.125.187-.311.373-.435.56-2.853 3.733-5.52 7.28-8.187 10.764z" fill="#fff"/></svg>
